X: 40
P: No. XL.
M: 6/8
L: 1/8
K: A
V: 1
e |\
e>fe e2c | e3 [a2c2]c | c>dc c2c | F3 [a2f2c2]G |\
cBA dcB | edc agf | edc B2e | A3 [a2e2c2] |]
V: 2 clef=bass middle=d
z |\
d'2z d2z | d'2z d2z | a2f c'2c | f3 F2z |
c'3 c'2a | c'3 z2z | c'3 c3 | f3 F2z |\
f2z g2z | a2z d'c'b | agf c'2c | fcA F2z |
a2z b2z | c'2z f'e'd' | c'ba e'2e | aec A2 |]

